src/lib/assets/icons/friends.svg

<svg width="180" height="180" viewBox="0 0 180 180" fill="none" xmlns="http://www.w3.org/2000/svg">
<path d="M16.6003 127.204C16.6003 128.934 17.5729 130.532 19.1513 131.396C20.7297 132.26 22.6748 132.26 24.2532 131.396C25.8316 130.532 26.8042 128.934 26.8042 127.204V118.17C26.8042 106.067 33.611 94.884 44.6609 88.8312C55.7096 82.7795 69.3244 82.7795 80.3742 88.8312C91.4229 94.8829 98.2309 106.066 98.2309 118.17V127.204C98.2309 128.934 99.2035 130.532 100.782 131.396C102.36 132.26 104.305 132.26 105.884 131.396C107.462 130.532 108.435 128.934 108.435 127.204V118.17C108.42 109.383 105.605 100.805 100.359 93.5618C95.1141 86.3177 87.6834 80.7477 79.0407 77.5826C87.2061 72.9742 92.8194 65.1889 94.3864 56.2993C95.9546 47.4096 93.3182 38.3173 87.1787 31.4382C81.0392 24.5591 72.0188 20.5923 62.5175 20.5923C53.0152 20.5923 43.9959 24.5591 37.8564 31.4382C31.7169 38.3173 29.0805 47.4099 30.6475 56.2993C32.2157 65.1889 37.8278 72.9742 45.9932 77.5826C37.3517 80.7477 29.9198 86.3177 24.6745 93.5618C19.4291 100.805 16.614 109.383 16.6003 118.17V127.204ZM62.5175 30.4128C68.3801 30.4128 74.0036 32.6219 78.1501 36.5552C82.2966 40.4885 84.6254 45.8228 84.6254 51.3839C84.6254 56.9461 82.2965 62.2804 78.1501 66.2138C74.0036 70.146 68.3801 72.3562 62.5175 72.3562C56.6538 72.3562 51.0304 70.1459 46.8838 66.2138C42.7385 62.2804 40.4085 56.9461 40.4085 51.3839C40.4164 45.8248 42.7476 40.4937 46.8917 36.5626C51.0371 32.6315 56.6559 30.4191 62.5175 30.4128Z" fill="#6DD743"/>
<path d="M146.548 87.8157C152.058 83.5984 155.472 77.3988 155.974 70.6999C156.475 64.0011 154.02 57.4052 149.195 52.491C144.369 47.5767 137.608 44.7866 130.528 44.7866C123.448 44.7866 116.687 47.577 111.862 52.491C107.037 57.4052 104.581 64.0011 105.083 70.6999C105.585 77.3988 108.999 83.5984 114.509 87.8157C112.152 89.057 109.969 90.5747 108.012 92.3323C106.99 93.2149 106.39 94.4518 106.347 95.7609C106.303 97.0713 106.823 98.3406 107.785 99.2814C108.746 100.221 110.07 100.752 111.451 100.751C112.832 100.749 114.153 100.217 115.113 99.2749C119.354 95.562 124.923 93.5183 130.693 93.5559C136.464 93.5948 142.003 95.7132 146.188 99.4823C150.345 103.411 152.672 108.756 152.65 114.323V120.776C152.65 122.505 153.622 124.103 155.201 124.967C156.779 125.832 158.724 125.832 160.302 124.967C161.881 124.103 162.853 122.505 162.853 120.776V114.323C162.878 106.176 159.463 98.3587 153.372 92.6162C151.326 90.742 149.033 89.1281 146.548 87.8156L146.548 87.8157ZM115.257 69.1023C115.264 65.2522 116.884 61.562 119.759 58.8441C122.633 56.1261 126.529 54.6029 130.588 54.6096C134.647 54.6162 138.537 56.1511 141.402 58.8778C144.269 61.6044 145.875 65.3001 145.869 69.1502C145.863 73.0003 144.245 76.6905 141.37 79.4095C138.496 82.1285 134.601 83.6529 130.542 83.6473C126.484 83.6441 122.593 82.1134 119.724 79.391C116.854 76.6686 115.24 72.9784 115.237 69.1286L115.257 69.1023Z" fill="#6DD743"/>
</svg>

<svg xmlns="http://www.w3.org/2000/svg" width="180" height="180" fill="none" viewBox="0 0 180 180">
  <path
    fill="#6dd743"
    d="M16.6 127.204c0 1.73.973 3.328 2.551 4.192a5.345 5.345 0 0 0 5.102 0c1.579-.864 2.551-2.462 2.551-4.192v-9.034c0-12.103 6.807-23.286 17.857-29.339s24.663-6.052 35.713 0 17.857 17.235 17.857 29.339v9.034c0 1.73.973 3.328 2.551 4.192a5.345 5.345 0 0 0 5.102 0c1.578-.864 2.551-2.462 2.551-4.192v-9.034c-.015-8.787-2.83-17.365-8.076-24.608s-12.676-12.814-21.318-15.98C87.206 72.975 92.819 65.19 94.386 56.3s-1.068-17.982-7.207-24.86-15.16-10.847-24.662-10.847-18.521 3.967-24.66 10.846-8.776 15.972-7.21 24.861 7.18 16.675 15.346 21.284c-8.641 3.165-16.073 8.735-21.319 15.979s-8.06 15.821-8.074 24.608v9.034zm45.917-96.791c5.863 0 11.487 2.209 15.633 6.142s6.475 9.268 6.475 14.829-2.329 10.896-6.475 14.83-9.77 6.142-15.633 6.142-11.487-2.21-15.633-6.142-6.476-9.268-6.476-14.83c.008-5.56 2.34-10.89 6.484-14.821s9.764-6.144 15.625-6.15zm84.031 57.403c5.51-4.218 8.924-10.417 9.426-17.116s-1.954-13.295-6.779-18.209-11.587-7.704-18.667-7.704-13.841 2.79-18.666 7.704-7.281 11.51-6.779 18.209 3.916 12.898 9.426 17.116a32.12 32.12 0 0 0-6.497 4.516c-1.022.883-1.622 2.12-1.665 3.429s.476 2.58 1.438 3.52a5.244 5.244 0 0 0 3.666 1.47 5.241 5.241 0 0 0 3.662-1.476c4.241-3.713 9.81-5.757 15.58-5.72s11.31 2.158 15.495 5.927c4.157 3.929 6.484 9.274 6.462 14.841v6.453c0 1.729.972 3.327 2.551 4.191a5.338 5.338 0 0 0 5.101 0c1.579-.864 2.551-2.462 2.551-4.191v-6.453c.025-8.147-3.39-15.964-9.481-21.707a32.723 32.723 0 0 0-6.824-4.8zm-31.291-18.714c.007-3.85 1.627-7.54 4.502-10.258s6.77-4.241 10.829-4.234 7.949 1.541 10.814 4.268 4.473 6.422 4.467 10.272-1.624 7.54-4.499 10.26-6.769 4.243-10.828 4.237-7.949-1.534-10.818-4.256-4.484-6.413-4.487-10.262l.02-.027z"
  />
</svg>
